X:1
T:We Have an Anchor
T:We Have an Anchor
T:William James Kirkpatrick
T:Priscilla Jane Owens, 1882
T:Public Domain Courtesy of the Cyber Hymnal™
T:Public Domain Courtesy of the Cyber Hymnal™
C:William James Kirkpatrick
Z:Public Domain
Z:Courtesy of the Cyber Hymnal™
%%score ( 1 2 ) ( 3 4 )
L:1/8
Q:1/4=105
M:4/4
K:F
V:1 treble 
V:2 treble 
V:3 bass 
V:4 bass 
V:1
 [CF]>[CG] | [FA]2 [CF]2 D2 [DG]>[DG] | [CF]2 [CE]2 [CF]2 ([FA]>[FA]) | %3
w: 1.~Will your|an- chor hold in the|storms of life, When~the *|
w: 2.~It is|safe- ly moored, ’twill the|storm with- stand, For~’tis *|
w: 3.~It will|sure- ly hold in the|Straits of Fear— When~the *|
w: 4.~It will|firm- ly hold in the|Floods of Death— When~the *|
w: 5.~When our|eyes be- hold through the|gath- ’ring night The *|
 ([EG][EG]) [EG]2 [Ec]2 ([CE][DF]) | [CE]2 [=B,D]2 !fermata!C2 C>C | [CF]2 [FA]2 [EG]2 C>C | %6
w: clouds * un- fold their *|wings of strife? When the|strong tides lift and the|
w: well * se- cured by~the *|Sav- ior’s hand; And the|ca- bles, passed from His|
w: breakers * have told that~the *|reef is near; Though the|temp- est rave and the|
w: wa- * ters cold chill~our *|lat- est breath, On the|ris- ing tide it can|
w: city * of gold, our *|har- bor bright, We shall|an- chor fast by the|
 [EG]2 [GB]2 [FA]2 [CF]>[FA] | [Fc]2 [_Ec]2 (cB)[FG] x | [FA]2 [EG]2 [CF]4 || %9
w: ca- bles strain, Will your|an- chor drift, * or|* firm re-|
w: heart to mine, Can de-|fy that blast, * thro’|* strength di-|
w: wild winds blow, Not an|ang- ry wave * shall~our|* bark o’er-|
w: ne- ver fail, While our|hopes a- bide * with-|* in the|
w: heav’n- ly shore, With the|storms all past * for-|* ev- er-|
"^Refrain" [Fc]2 [Fc]>[Fc] [Fc] [Fc]2 [Fc] | [Fd]2 [Fc]2 [Fc]4 | [FA]2 [FA][FA] [Fc]2 [Fc]>[FA] | %12
w: main? * * * * *|||
w: vine. * * * * *|||
w: flow. We have an an- chor|that keeps the|soul Stead- fast and sure while|
w: Veil. * * * * *|||
w: more. * * * * *|||
 F2 [FA]2 [EG]4 | [Fc][Fc] [Fc]>[Fc] [Fc]2 [FA]2 | [FB]2 [Fc]2 [Fd]4 | [Cc][Cc]AF C2 [FB]>[FB] | %16
w: ||||
w: ||||
w: the bil- lows|roll, Fast- ened to the Rock|which can- not|move, Ground- ed firm and deep in|
w: ||||
w: ||||
 [FA]2 [EG]2 !fermata![CF]2 |] %17
w: |
w: |
w: the Sav- ior’s|
w: |
w: |
V:2
 x2 | x4 D2 x2 | x8 | x8 | x4 C2 C>C | x6 C>C | x8 | x4 D2 F x | x8 || x8 | x8 | x8 | F2 x6 | x8 | %14
 x8 | x2 AF C2 x2 | x6 |] %17
V:3
 [F,A,]>[F,B,] | [F,C]2 [F,A,]2 [B,,F,]2 [B,,B,]>[B,,B,] | [C,A,]2 [C,G,]2 [F,A,]2 [F,C]>[F,C] | %3
 [C,C][C,C] [C,C]2 [C,G,]2 [C,G,][F,A,] | G,2 [G,,F,]2 [C,E,]2 [E,B,]>[E,B,] | %5
 [F,A,]2 [F,C]2 [C,C]2 [C,C]>[C,C] | [C,C]2 [C,C]2 [F,C]2 [F,A,]>[F,C] | %7
 [F,A,]2 [F,A,]2 [B,,F,]2 [B,,D][B,,D] | [C,C]2 [C,B,]2 [F,A,]4 || %9
 [F,A,]2 [F,A,]>[F,A,] [F,A,] [F,A,]2 [F,A,] | [F,B,]2 [F,A,]2 [F,A,]4 | %11
 [F,C]2 [F,C][F,C] [F,A,]2 [F,A,]>[F,C] | [A,C]2 [F,C]2 [C,C]4 | %13
 [F,A,][F,A,] [F,A,]>[F,A,] [F,A,]2 [_E,C]2 | [D,B,]2 [C,A,]2 [B,,B,]4 | %15
 [C,C][C,C][A,,A,][F,,F,] C,2 [B,,D]>[B,,D] | [C,C]2 [C,B,]2 !fermata![F,,F,A,]2 |] %17
V:4
 x2 | x8 | x8 | x8 | G,2 x6 | x8 | x8 | x8 | x8 || x8 | x8 | x8 | x8 | x8 | x8 | x4 C,2 x2 | x6 |] %17

